X: 972
T: Texas Galop
B: jims roots
M:2/4
L:1/8
Q: 1/4=100
K:D
V:1 
"D"DF/A/ dF | "G"GB/d/ gB | "A"Ac/e/ ac|"D"e/d/c/B/ A/G/F/E/|
"D"DF/A/ dF|"G"GB/d/ gB|"A"Ac/e/ ac|"D"d3e:|
|:"D"f2"G"g2 |"A"a/g/f/e/ "D"d2 | "A"eaea | "D"f/e/d/B/ A2 |
"D"DF/A/ dF | "G"GB/d/ gB | "A"Ac/e/ ac | "D"e/d/c/B/ A/G/F/E/ |
"D"DF/A/ dF | "G"GB/d/ gB | "D"Ac/e/ ac |[1 "D"d3e:|[2 "D"d2a2|d'4||
% abcbook-tune_id 6298c29766f8f58c5e53b234


% abcbook-boost 0
% abcbook-tablature 
% abcbook-transpose 
% abcbook-lastupdated 1654178456141
% abcbook-soundfonts 
% abcbook-repeats 1


